tablet-android.svg

<svg fill="currentColor" viewBox="0 0 24 24"><path d="M19.25 19H4.75V3h14.5M14 22h-4v-1h4m4-21H6a3 3 0 0 0-3 3v18a3 3 0 0 0 3 3h12a3 3 0 0 0 3-3V3a3 3 0 0 0-3-3"/></svg>

<svg  viewBox="0 0 24 24" fill="currentColor"><path  d="M19.25,19H4.75V3H19.25M14,22H10V21H14M18,0H6A3,3 0 0,0 3,3V21A3,3 0 0,0 6,24H18A3,3 0 0,0 21,21V3A3,3 0 0,0 18,0Z"/></svg>
